X:585
T: WER DIE GANS GESTOHLEN HAT
N: E1896
O: Europa, Mitteleuropa, Deutschland
R: Kinder - Lied, Tanz, Spiel
M: 2/4
L: 1/8
K: F
 | FGAB | ccc
c | d2f2 | c2z
c | d2f2 | c2z
c | cBBB | BAA
A | G2c2 | F2z
A | G2c2 | F2z2

